X:1
T:As I Went Down to Port Jervis
M:6/8
L:1/4
K:C
F/4-G/4| A A/2 G/4 F3/4 D/2| G/2 F- F D/2| C D/2 F F/2| F3/2- F G/2|\
 A G/2 A c/2| d/2 d c d/2| F A/2 G F/2| D3/2- D G/2| A G/2 A c/2| d/2 A c d/2|\
 F A/2 G F/2| D3/2- DF/4-G/4| A A/2 G/4- F3/4 D/2| G/2 F- F D/2| C D/2 F F/2|\
 F3/2- F||
